packages/icons/src/assets/color-picker.svg

<svg width="16" height="16" viewBox="0 0 16 16" fill="none" xmlns="http://www.w3.org/2000/svg"><g clip-path="url(#clip0_7795_318)"><path d="M14.671 1.37103C15.5934 2.29342 15.5934 3.78891 14.671 4.71129L13.3088 6.0735C13.219 6.16324 13.1652 6.28277 13.1576 6.40945L13.1227 6.99115C13.0689 7.88489 12.3931 8.61717 11.5066 8.74235L11.4846 8.7447C11.3821 8.75308 11.2806 8.71918 11.2038 8.65085L11.1877 8.63573L10.8526 8.30068L5.70158 13.4517L5.65745 13.495C5.1969 13.9371 4.60764 14.2224 3.97407 14.309C3.87036 14.3232 3.77211 14.364 3.68895 14.4276L3.19384 14.806L3.14419 14.8422C2.62517 15.2035 1.85114 15.0916 1.37738 14.6646L1.33727 14.618C0.948238 14.1456 0.850179 13.4001 1.19978 12.8978L1.23603 12.8482L1.61444 12.3531C1.67006 12.2803 1.70826 12.196 1.72645 12.1066L1.73301 12.068C1.81962 11.4344 2.10491 10.8451 2.54701 10.3846L2.59031 10.3404L7.74134 5.18941L7.4063 4.85436C7.32787 4.77594 7.28835 4.66723 7.29733 4.55743L7.29968 4.53547C7.4229 3.66276 8.13439 2.99427 9.00909 2.92232L9.05087 2.91935L9.63258 2.88441C9.75925 2.87678 9.87879 2.82298 9.96852 2.73325L11.3307 1.37103C12.2531 0.448651 13.7486 0.448652 14.671 1.37103ZM8.62523 6.07329L3.47419 11.2243C3.20051 11.498 3.02397 11.8538 2.97155 12.2373C2.90705 12.709 2.43862 13.2438 2.1552 13.604C2.11985 13.6393 2.04914 13.7808 2.1552 13.8868C2.26127 13.9929 2.40269 13.9222 2.43805 13.8868C2.7965 13.608 3.3411 13.1339 3.80475 13.0705L3.87636 13.0592C4.23241 12.9956 4.56113 12.8244 4.81769 12.5678L9.96873 7.4168L8.62523 6.07329ZM13.7871 2.25492C13.3529 1.82069 12.6488 1.82069 12.2146 2.25492L10.8524 3.61713C10.5466 3.92294 10.1393 4.10616 9.70764 4.13213L9.12593 4.16707C8.95545 4.17733 8.80255 4.25504 8.69442 4.37472L11.6673 7.34761C11.787 7.23948 11.8647 7.08657 11.875 6.91609L11.9099 6.33439C11.9359 5.90268 12.1191 5.49543 12.4249 5.18962L13.7871 3.8274C14.2213 3.39318 14.2213 2.68915 13.7871 2.25492Z" fill="currentColor"/></g><defs><clipPath id="clip0_7795_318"><rect width="16" height="16" fill="white"/></clipPath></defs></svg>

<svg xmlns="http://www.w3.org/2000/svg" width="16" height="16" viewBox="0 0 16 16"><path d="M14.671 1.371a2.36 2.36 0 0 1 0 3.34l-1.362 1.362a.52.52 0 0 0-.151.336l-.035.582a1.88 1.88 0 0 1-1.616 1.751l-.022.003a.38.38 0 0 1-.281-.094l-.016-.015-.335-.335-5.151 5.15-.045.044c-.46.442-1.05.727-1.683.814a.6.6 0 0 0-.285.119l-.495.378-.05.036c-.519.361-1.293.25-1.767-.177l-.04-.047C.948 14.146.85 13.4 1.2 12.898l.036-.05.378-.495a.6.6 0 0 0 .112-.246l.007-.039a3.02 3.02 0 0 1 .814-1.683l.043-.045 5.151-5.15-.335-.336a.38.38 0 0 1-.109-.297l.003-.022a1.88 1.88 0 0 1 1.71-1.613l.04-.003.583-.035a.52.52 0 0 0 .336-.15L11.33 1.37a2.36 2.36 0 0 1 3.34 0M8.625 6.073l-5.15 5.151a1.77 1.77 0 0 0-.503 1.013c-.065.472-.533 1.007-.817 1.367-.035.035-.106.177 0 .283s.248.035.283 0c.358-.279.903-.753 1.367-.817l.071-.01c.356-.064.685-.236.942-.492l5.15-5.151zm5.162-3.818a1.11 1.11 0 0 0-1.572 0l-1.363 1.362a1.77 1.77 0 0 1-1.144.515l-.582.035a.63.63 0 0 0-.432.208l2.973 2.973a.63.63 0 0 0 .208-.432l.035-.582a1.77 1.77 0 0 1 .515-1.144l1.362-1.363a1.11 1.11 0 0 0 0-1.572"/></svg>
